X:74
T:My Dearie Sits Ower Late Up
T:My Bonnie Bay Mare and I
Z:Jack Campin, http://www.campin.me.uk/
S:Northumbrian Minstrelsy
M:9/8
L:1/8
K:G
e|dBG BdB       G2e |dBG     dB/c/d/B/ A2
e|dBG dB/c/d/B/ GAB |c>de/f/ gdB       A2:|
g|fef gdB       A2g |fef     gdB       A2
g|fef gdB       GAB |c>de/f/ gdB       A2:|

